!!!ONB: MCCC : IWM0402_01 : Extracted Monophonic Melody
!!!COM: Mozart, Wolfgang Amadeus
!!!OPR: Piano Sonata No.2
!!!OMV: 1
!!!SCT: K.280 ; K⁶.189e
!!!ODT: 1774///
**kern
*thru
*staff1
*>A
*clefG2
*k[b-]
*F:
*M3/4
*MM152
=1
4cc:
4cc
4cc
=2
4.cc
16dd
16cc
16b-
16a
16g
16f
=3
4ff
4ee
4ee-
=4
4dd
4r
4r
=5
8cc
8b-
4b-
4r
=6
8dd
8cc
4cc
4r
=7
16bb-
16aa
16gg
16aa
16gg
16ff
16ee
16ff
16ee
16dd
16cc
16b-
=8
8a
4ff
4ee
8ff
=9
8r
8dd
8r
8g
8r
8e
=10
16bb-
16aa
16gg
16aa
16gg
16ff
16ee
16ff
16ee
16dd
16cc
16b-
=11
8a
4aa
4gg
8ff
=12
8r
8dd
8r
8g
8r
8e
=13
12A
12f
12c
12a
12f
12c
12B-
12g
12e
=14
*Xtuplet
12f
12A
12c
12g
12c
12e
12a
12c
12f
=15
12c
12g
12e
12b-
12g
12e
12c
12a
12f
=16
12g
12c
12e
12a
12c
12f
12b-
12c
12g
=17
12a
12cc
12ff
12aa
12ff
12dd
12cc
12ff
12aa
=18
12aa-
12dd
12b
12cc
12ee
12gg
12ee-
12cc
12b-
=19
12a
12cc
12gg-
12ff
12dd
12b-
12a
12dd
12ff
=20
12ff
12b
12g#
12a
12cc#
12ee
12cc
12a
12g
=21
12f#
12a
12ee-
12dd
12b
12g
12f
12b-
12dd
=22
12dd-
12g
12e
12f
12a
12cc
12ff
12cc
12a
=23
12g
12b-
12a
12b-
12dd
12cc#
12dd
12gg
12ff#
=24
12gg
12bb-
12aa
12bb-
12ddd
12ccc#
12ddd
12bb-
12aa
=25
12bb-
12gg
12ff#
12gg
12dd
12cc#
12dd
12b-
12g
=26
4f
4e
4r
=27
2.r
=28
16gg
16aa
16gg
16ee
16gg
16aa
16gg
16ee
16ff
16gg
16ff
16dd
=29
16ee
16ff
16ee
16cc
16ee
16ff
16ee
16cc
16dd
16ee
16dd
16b
=30
4.cc
16dd
16ee
4dd
=31
2.r
=32
16ff
16gg
16ff
16dd
16ff
16gg
16ff
16dd
16ee
16ff
16ee
16cc
=33
16dd
16ee
16dd
16b
16dd
16ee
16dd
16b
16cc
16b
16cc
16ee
=34
4.dd
16ee
16ff
4ee
=35
*tuplet
12r
12gg
12ff
12ee
12gg
12dd
12cc
12gg
12b-
=36
*Xtuplet
12r
12b-
12g#
12a
12dd
12cc#
12ee
12dd
12ff
=37
12r
12aa
12gg
12ff#
12aa
12ee
12dd
12aa
12cc
=38
12r
12cc
12a#
12b
12ee
12dd#
12ff#
12ee
12gg
=39
12r
12bb
12aa
12gg#
12bb
12ff
12ee
12bb
12dd
=40
12r
12b
12cc
4ff
4ee
=41
12r
12cc#
12dd
4aa
4gg
=42
16gg
16ff
16ee
16dd
4cc
8.b
32a
32b
=43
4cc
16r
16b
16cc
16dd
16ff
16ee
16dd
16cc
=44
4b
16r
16cc#
16dd
16ee
16gg
16ff
16ee
16dd
=45
4cc
16r
16dd#
16ee
16ff
16aa
16gg
16ff
16ee
=46
16cc#
16dd
16ff
16ee
16cc#
16dd
16ff
16ee
16gg
16ff
16ee
16dd
=47
16aa
16ff
16ee
16dd
2dd
=48
4cc:
8r
24B
24c
24d
16f
16e
16d
16c
=49
4B
16r
16c#
16d
16e
16g
16f
16e
16d
=50
4c
16r
16d#
16e
16f
16a
16g
16f
16e
=51
4d
16r
16d
16f
16a
8dd
8r
=52
16r
16a
16dd
16ff
8aa
8r
16r
16bb
16ccc
16gg#
=53
16aa
16ee
16ff
16dd
2dd
=54
8cc
8ee
4gg
8.bb
32aa
32bb
=55
8ccc
8ee
4gg
8.bb
32aa
32bb
=56
4ccc
4cc
4r
=57
*>A
*M3/4
4cc:
4cc
4cc
=58
4.cc
16dd
16cc
16b-
16a
16g
16f
=59
4ff
4ee
4ee-
=60
4dd
4r
4r
=61
8cc
8b-
4b-
4r
=62
8dd
8cc
4cc
4r
=63
16bb-
16aa
16gg
16aa
16gg
16ff
16ee
16ff
16ee
16dd
16cc
16b-
=64
8a
4ff
4ee
8ff
=65
8r
8dd
8r
8g
8r
8e
=66
16bb-
16aa
16gg
16aa
16gg
16ff
16ee
16ff
16ee
16dd
16cc
16b-
=67
8a
4aa
4gg
8ff
=68
8r
8dd
8r
8g
8r
8e
=69
12A
12f
12c
12a
12f
12c
12B-
12g
12e
=70
*Xtuplet
12f
12A
12c
12g
12c
12e
12a
12c
12f
=71
12c
12g
12e
12b-
12g
12e
12c
12a
12f
=72
12g
12c
12e
12a
12c
12f
12b-
12c
12g
=73
12a
12cc
12ff
12aa
12ff
12dd
12cc
12ff
12aa
=74
12aa-
12dd
12b
12cc
12ee
12gg
12ee-
12cc
12b-
=75
12a
12cc
12gg-
12ff
12dd
12b-
12a
12dd
12ff
=76
12ff
12b
12g#
12a
12cc#
12ee
12cc
12a
12g
=77
12f#
12a
12ee-
12dd
12b
12g
12f
12b-
12dd
=78
12dd-
12g
12e
12f
12a
12cc
12ff
12cc
12a
=79
12g
12b-
12a
12b-
12dd
12cc#
12dd
12gg
12ff#
=80
12gg
12bb-
12aa
12bb-
12ddd
12ccc#
12ddd
12bb-
12aa
=81
12bb-
12gg
12ff#
12gg
12dd
12cc#
12dd
12b-
12g
=82
4f
4e
4r
=83
2.r
=84
16gg
16aa
16gg
16ee
16gg
16aa
16gg
16ee
16ff
16gg
16ff
16dd
=85
16ee
16ff
16ee
16cc
16ee
16ff
16ee
16cc
16dd
16ee
16dd
16b
=86
4.cc
16dd
16ee
4dd
=87
2.r
=88
16ff
16gg
16ff
16dd
16ff
16gg
16ff
16dd
16ee
16ff
16ee
16cc
=89
16dd
16ee
16dd
16b
16dd
16ee
16dd
16b
16cc
16b
16cc
16ee
=90
4.dd
16ee
16ff
4ee
=91
*tuplet
12r
12gg
12ff
12ee
12gg
12dd
12cc
12gg
12b-
=92
*Xtuplet
12r
12b-
12g#
12a
12dd
12cc#
12ee
12dd
12ff
=93
12r
12aa
12gg
12ff#
12aa
12ee
12dd
12aa
12cc
=94
12r
12cc
12a#
12b
12ee
12dd#
12ff#
12ee
12gg
=95
12r
12bb
12aa
12gg#
12bb
12ff
12ee
12bb
12dd
=96
12r
12b
12cc
4ff
4ee
=97
12r
12cc#
12dd
4aa
4gg
=98
16gg
16ff
16ee
16dd
4cc
8.b
32a
32b
=99
4cc
16r
16b
16cc
16dd
16ff
16ee
16dd
16cc
=100
4b
16r
16cc#
16dd
16ee
16gg
16ff
16ee
16dd
=101
4cc
16r
16dd#
16ee
16ff
16aa
16gg
16ff
16ee
=102
16cc#
16dd
16ff
16ee
16cc#
16dd
16ff
16ee
16gg
16ff
16ee
16dd
=103
16aa
16ff
16ee
16dd
2dd
=104
4cc:
8r
24B
24c
24d
16f
16e
16d
16c
=105
4B
16r
16c#
16d
16e
16g
16f
16e
16d
=106
4c
16r
16d#
16e
16f
16a
16g
16f
16e
=107
4d
16r
16d
16f
16a
8dd
8r
=108
16r
16a
16dd
16ff
8aa
8r
16r
16bb
16ccc
16gg#
=109
16aa
16ee
16ff
16dd
2dd
=110
8cc
8ee
4gg
8.bb
32aa
32bb
=111
8ccc
8ee
4gg
8.bb
32aa
32bb
=112
4ccc
4cc
4r
=113
*>B
4gg
4r
4r
=114
4r
8.gg
16ee
8.gg
16ee
=115
4ff
4r
4r
=116
4r
8.dd
16b
8.dd
16b
=117
[2.cc
=118
4cc]
8.dd
16a
8.b
16g
=119
[2.gg
=120
4gg_
8.gg]
16ee
8.gg
16ee
=121
2.gg[
=122
2gg]
4r
=123
2.r
=124
16aa
16bb-
16aa
16ff
16gg
16aa
16gg
16ee
16ff
16gg
16ff
16dd
=125
4bb-:
4r
4r
=126
16dd
16ee-
16dd
16b-
16cc
16dd
16cc
16a
16b-
16cc
16b-
16g
=127
4ee:
4r
4r
=128
16gg
16aa
16gg
16ee
16ff
16gg
16ff
16dd
16ee
16ff
16ee
16cc
=129
4aa:
4r
4r
=130
16cc
16dd
16cc
16a
16b-
16cc
16b-
16g
16a
16b-
16a
16f
=131
4ddd:
4e
4f
=132
4ddd:
4e
4f
=133
4ddd:
4e
4f
=134
12c#
12a
12e
12d
12b-
12f
12d
12g#
12f
=135
12c#
12a
12e
12d
12b-
12f
12d
12g#
12f
=136
4r
8b-
8a
4a
=137
4r
8cc
8b
4b
=138
4r
8cc
8b-
4b-
=139
4cc:
4cc
4cc
=140
4.cc
16dd
16cc
16b-
16a
16g
16f
=141
4ff
4ee
4ee-
=142
4dd
4r
4r
=143
8cc
8b-
4b-
4r
=144
8dd
8cc
4cc
4r
=145
16bb-
16aa
16gg
16aa
16gg
16ff
16ee
16ff
16ee
16dd
16cc
16b-
=146
8a
4ff
4ee
8ff
=147
8r
8dd
8r
8g
8r
8e
=148
16bb-
16aa
16gg
16aa
16gg
16ff
16ee
16ff
16ee
16dd
16cc
16b-
=149
8a
4aa
4gg
8ff
=150
8r
8dd
8r
8g
8r
8e
=151
*tuplet
12A
12f
12c
12a
12f
12c
12B-
12g
12e
=152
*Xtuplet
12f
12A
12c
12g
12c
12e
12a
12c
12f
=153
12c
12g
12e
12b-
12g
12e
12c
12a
12f
=154
12g
12c
12e
12a
12c
12f
12b-
12c
12g
=155
12a
12cc
12ff
12aa
12ff
12dd
12cc
12ff
12aa
=156
12aa-
12dd
12b
12cc
12ee
12gg
12ee
12cc
12g
=157
4ccc#
4ddd
12a
12dd
12ff#
=158
12ff
12b
12g#
12a
12cc
12ee
12cc
12a
12e
=159
4aa
4bb-
12f
12b-
12dd
=160
12dd-
12g
12e
12f
12a
12cc
12ff
12cc
12a
=161
12g
12b-
12a
12b-
12dd
12cc#
12dd
12gg
12ff#
=162
12gg
12bb-
12aa
12bb-
12ddd
12ccc#
12ddd
12bb-
12aa
=163
12bb-
12gg
12ff#
12gg
12dd
12cc#
12dd
12b-
12g
=164
4f
4e
4r
=165
2.r
=166
16ccc
16ddd
16ccc
16aa
16ccc
16ddd
16ccc
16aa
16bb-
16ccc
16bb-
16gg
=167
16aa
16bb-
16aa
16ff
16aa
16bb-
16aa
16ff
16gg
16aa
16gg
16ee
=168
4.ff
16gg
16aa
4gg
=169
2.r
=170
16bb-
16ccc
16bb-
16gg
16bb-
16ccc
16bb-
16gg
16aa
16bb-
16aa
16ff
=171
16gg
16aa
16gg
16ee
16gg
16aa
16gg
16ee
16ff
16ee
16ff
16aa
=172
4.gg
16aa
16bb-
4aa
=173
16r
16ccc
16bb-
16ccc
16aa
16bb-
16gg
16aa
16ff
16gg
16ee
16ff
=174
4dd
4ff
4bb-
=175
16r
16bb-
16aa
16bb-
16gg
16aa
16ff
16gg
16ee
16ff
16dd
16ee
=176
4cc
4ee
4aa
=177
16r
16aa
16gg
16aa
16ff
16gg
16ee
16ff
16dd
16ee
16cc
16dd
=178
16b-
16cc
16a
16b-
16g
16a
16f
16g
16e
16f
16d
16e
=179
*tuplet
12c
12cc
12b-
12a
12cc
12g
12f
12cc
12e-
=180
*Xtuplet
12r
12e-
12c#
12d
12g
12f#
12a
12g
12b-
=181
12r
12dd
12cc
12b
12dd
12a
12g
12dd
12f
=182
12r
12f
12d#
12e
12a
12g#
12b
12a
12cc
=183
12r
12ee
12dd
12cc#
12ee
12b-
12a
12ee
12g
=184
12r
12e
12f
4b-
4a
=185
12r
12f#
12g
4dd
4cc
=186
16cc
16b-
16a
16g
4f
8.e
32d
32e
=187
4f
16r
16ee
16ff
16gg
16bb-
16aa
16gg
16ff
=188
4ee
16r
16ff#
16gg
16aa
16ccc
16bb-
16aa
16gg
=189
4ff
16r
16gg#
16aa
16bb-
16ddd
16ccc
16bb-
16aa
=190
16ff#
16gg
16bb-
16aa
16ff#
16gg
16bb-
16aa
16ccc
16bb-
16aa
16gg
=191
16ddd
16bb-
16aa
16gg
2gg
=192
4ff:
16r
16e
16f
16g
16b-
16a
16g
16f
=193
4e
16r
16f#
16g
16a
16cc
16b-
16a
16g
=194
4f
16r
16g#
16a
16b-
16dd
16cc
16b-
16a
=195
4g
16r
16G
16B-
16d
8g
8r
=196
16r
16d
16g
16b-
8dd
8r
16r
16ee
16ff
16cc#
=197
16dd
16a
16b-
16g
2g
=198
8f
8a
4cc
8.ee
32dd
32ee
=199
8ff
8a
4cc
8.ee
32dd
32ee
=200
4ff
4f
4r
=201
*>B
4gg
4r
4r
=202
4r
8.gg
16ee
8.gg
16ee
=203
4ff
4r
4r
=204
4r
8.dd
16b
8.dd
16b
=205
[2.cc
=206
4cc]
8.dd
16a
8.b
16g
=207
[2.gg
=208
4gg_
8.gg]
16ee
8.gg
16ee
=209
2.gg[
=210
2gg]
4r
=211
2.r
=212
16aa
16bb-
16aa
16ff
16gg
16aa
16gg
16ee
16ff
16gg
16ff
16dd
=213
4bb-:
4r
4r
=214
16dd
16ee-
16dd
16b-
16cc
16dd
16cc
16a
16b-
16cc
16b-
16g
=215
4ee:
4r
4r
=216
16gg
16aa
16gg
16ee
16ff
16gg
16ff
16dd
16ee
16ff
16ee
16cc
=217
4aa:
4r
4r
=218
16cc
16dd
16cc
16a
16b-
16cc
16b-
16g
16a
16b-
16a
16f
=219
4ddd:
4e
4f
=220
4ddd:
4e
4f
=221
4ddd:
4e
4f
=222
12c#
12a
12e
12d
12b-
12f
12d
12g#
12f
=223
12c#
12a
12e
12d
12b-
12f
12d
12g#
12f
=224
4r
8b-
8a
4a
=225
4r
8cc
8b
4b
=226
4r
8cc
8b-
4b-
=227
4cc:
4cc
4cc
=228
4.cc
16dd
16cc
16b-
16a
16g
16f
=229
4ff
4ee
4ee-
=230
4dd
4r
4r
=231
8cc
8b-
4b-
4r
=232
8dd
8cc
4cc
4r
=233
16bb-
16aa
16gg
16aa
16gg
16ff
16ee
16ff
16ee
16dd
16cc
16b-
=234
8a
4ff
4ee
8ff
=235
8r
8dd
8r
8g
8r
8e
=236
16bb-
16aa
16gg
16aa
16gg
16ff
16ee
16ff
16ee
16dd
16cc
16b-
=237
8a
4aa
4gg
8ff
=238
8r
8dd
8r
8g
8r
8e
=239
*tuplet
12A
12f
12c
12a
12f
12c
12B-
12g
12e
=240
*Xtuplet
12f
12A
12c
12g
12c
12e
12a
12c
12f
=241
12c
12g
12e
12b-
12g
12e
12c
12a
12f
=242
12g
12c
12e
12a
12c
12f
12b-
12c
12g
=243
12a
12cc
12ff
12aa
12ff
12dd
12cc
12ff
12aa
=244
12aa-
12dd
12b
12cc
12ee
12gg
12ee
12cc
12g
=245
4ccc#
4ddd
12a
12dd
12ff#
=246
12ff
12b
12g#
12a
12cc
12ee
12cc
12a
12e
=247
4aa
4bb-
12f
12b-
12dd
=248
12dd-
12g
12e
12f
12a
12cc
12ff
12cc
12a
=249
12g
12b-
12a
12b-
12dd
12cc#
12dd
12gg
12ff#
=250
12gg
12bb-
12aa
12bb-
12ddd
12ccc#
12ddd
12bb-
12aa
=251
12bb-
12gg
12ff#
12gg
12dd
12cc#
12dd
12b-
12g
=252
4f
4e
4r
=253
2.r
=254
16ccc
16ddd
16ccc
16aa
16ccc
16ddd
16ccc
16aa
16bb-
16ccc
16bb-
16gg
=255
16aa
16bb-
16aa
16ff
16aa
16bb-
16aa
16ff
16gg
16aa
16gg
16ee
=256
4.ff
16gg
16aa
4gg
=257
2.r
=258
16bb-
16ccc
16bb-
16gg
16bb-
16ccc
16bb-
16gg
16aa
16bb-
16aa
16ff
=259
16gg
16aa
16gg
16ee
16gg
16aa
16gg
16ee
16ff
16ee
16ff
16aa
=260
4.gg
16aa
16bb-
4aa
=261
16r
16ccc
16bb-
16ccc
16aa
16bb-
16gg
16aa
16ff
16gg
16ee
16ff
=262
4dd
4ff
4bb-
=263
16r
16bb-
16aa
16bb-
16gg
16aa
16ff
16gg
16ee
16ff
16dd
16ee
=264
4cc
4ee
4aa
=265
16r
16aa
16gg
16aa
16ff
16gg
16ee
16ff
16dd
16ee
16cc
16dd
=266
16b-
16cc
16a
16b-
16g
16a
16f
16g
16e
16f
16d
16e
=267
*tuplet
12c
12cc
12b-
12a
12cc
12g
12f
12cc
12e-
=268
*Xtuplet
12r
12e-
12c#
12d
12g
12f#
12a
12g
12b-
=269
12r
12dd
12cc
12b
12dd
12a
12g
12dd
12f
=270
12r
12f
12d#
12e
12a
12g#
12b
12a
12cc
=271
12r
12ee
12dd
12cc#
12ee
12b-
12a
12ee
12g
=272
12r
12e
12f
4b-
4a
=273
12r
12f#
12g
4dd
4cc
=274
16cc
16b-
16a
16g
4f
8.e
32d
32e
=275
4f
16r
16ee
16ff
16gg
16bb-
16aa
16gg
16ff
=276
4ee
16r
16ff#
16gg
16aa
16ccc
16bb-
16aa
16gg
=277
4ff
16r
16gg#
16aa
16bb-
16ddd
16ccc
16bb-
16aa
=278
16ff#
16gg
16bb-
16aa
16ff#
16gg
16bb-
16aa
16ccc
16bb-
16aa
16gg
=279
16ddd
16bb-
16aa
16gg
2gg
=280
4ff:
16r
16e
16f
16g
16b-
16a
16g
16f
=281
4e
16r
16f#
16g
16a
16cc
16b-
16a
16g
=282
4f
16r
16g#
16a
16b-
16dd
16cc
16b-
16a
=283
4g
16r
16G
16B-
16d
8g
8r
=284
16r
16d
16g
16b-
8dd
8r
16r
16ee
16ff
16cc#
=285
16dd
16a
16b-
16g
2g
=286
8f
8a
4cc
8.ee
32dd
32ee
=287
8ff
8a
4cc
8.ee
32dd
32ee
=288
4ff
4f
4r
==
*-
